src/cmd/lc_insertbreak.svg

<svg viewBox="0 0 24 24" xmlns="http://www.w3.org/2000/svg"><path d="m6 11v1h2v-1zm5 0v1h2v-1zm5 0v1h2v-1z" fill="#762572"/><path d="m10 18c-.552285 0-1 .4477-1 1s.447715 1 1 1 1-.4477 1-1-.447715-1-1-1zm4 0c-.552285 0-1 .4477-1 1s.447715 1 1 1 1-.4477 1-1-.447715-1-1-1zm4 0c-.552285 0-1 .4477-1 1s.447715 1 1 1 1-.4477 1-1-.447715-1-1-1z" fill="#e95420"/><path d="m5 4v6h14v-1-5h-1-12zm1 1h12v4h-12zm-1 8v1 6h1 2v-1h-2v-5h12v1h-4v1 1h4l1-1v-1.40625-.59375-1z" fill="#232629"/></svg>

<?xml version="1.0" encoding="UTF-8" standalone="no"?>
<svg
   xmlns:dc="http://purl.org/dc/elements/1.1/"
   xmlns:cc="http://creativecommons.org/ns#"
   xmlns:rdf="http://www.w3.org/1999/02/22-rdf-syntax-ns#"
   xmlns:svg="http://www.w3.org/2000/svg"
   xmlns="http://www.w3.org/2000/svg"
   xmlns:sodipodi="http://sodipodi.sourceforge.net/DTD/sodipodi-0.dtd"
   xmlns:inkscape="http://www.inkscape.org/namespaces/inkscape"
   viewBox="0 0 24 24"
   version="1.1"
   id="svg8"
   sodipodi:docname="lc_insertbreak.svg"
   inkscape:version="0.92.4 (5da689c313, 2019-01-14)">
  <metadata
     id="metadata14">
    <rdf:RDF>
      <cc:Work
         rdf:about="">
        <dc:format>image/svg+xml</dc:format>
        <dc:type
           rdf:resource="http://purl.org/dc/dcmitype/StillImage" />
      </cc:Work>
    </rdf:RDF>
  </metadata>
  <defs
     id="defs12" />
  <sodipodi:namedview
     pagecolor="#ffffff"
     bordercolor="#666666"
     borderopacity="1"
     objecttolerance="10"
     gridtolerance="10"
     guidetolerance="10"
     inkscape:pageopacity="0"
     inkscape:pageshadow="2"
     inkscape:window-width="1920"
     inkscape:window-height="1011"
     id="namedview10"
     showgrid="true"
     inkscape:zoom="19.666667"
     inkscape:cx="3.2381135"
     inkscape:cy="6.358049"
     inkscape:window-x="0"
     inkscape:window-y="32"
     inkscape:window-maximized="1"
     inkscape:current-layer="svg8">
    <inkscape:grid
       type="xygrid"
       id="grid821" />
  </sodipodi:namedview>
  <path
     d="m6 11v1h2v-1zm5 0v1h2v-1zm5 0v1h2v-1z"
     fill="#762572"
     id="path2" />
  <path
     d="m 5,4 v 6 H 19 V 9 4 H 18 6 Z M 6,5 H 18 V 9 H 6 Z M 19,20 V 14.59375 14 13 H 5 v 1 6 H 6 8 Z M 8,19 H 6 v -5 h 12 v 1 4 z"
     id="path6"
     inkscape:connector-curvature="0"
     style="fill:#232629"
     sodipodi:nodetypes="cccccccccccccccccccccccccccccc" />
</svg>
